X:662
T: Kuoda tiehongjun
N: C2188
O: China, Hunan Chaling
S: I, 524]
R: Xiaodiao, Shiyuehua]
M: 2/4
L: 1/16
K: A
B2B4c2 | BcBAF4 | B2B4c2 | e3fe2c2 | B2e2c2B2 | ABA6
B2B4c2 | BcBAF4 | BcBAF2B2A2A2 | F2F4B2 | A2A2FEFA | E8
c2e2cBA2 | B2B2ABce | BcB6

